X:8
T:Margaret's Waltz
C:Pat Shuldam Shaw
R:waltz
O:SCO
M:3/4
K:A
(A&amp;gt;F)|"A"(E3 F) (A&amp;gt;B)|c4 (A&amp;gt;c)|"D"(B&amp;gt;A) F2 A2|"E7"B4 A&amp;gt;F|"A"(E3F) (A&amp;gt;B)|c4 (e&amp;gt;A)|"E7"c4 B2|"A"A4:|
(c&amp;gt;d)|"A"e2 f2 g2|"D"a2 g2 a2|(f&amp;gt;e) d2 f2|"E7"e3 A ((3cBA)|"A"(A3 B) (c&amp;gt;d)|"F#m"e4 (c&amp;gt;A)|"Bm"(f&amp;gt;e) (d&amp;gt;c) A&amp;gt;c|"E7"B4 c&amp;gt;d|
"A"e&amp;gt;A f&amp;gt;A g&amp;gt;A|"D"a&amp;gt;A g&amp;gt;A f&amp;gt;A|"A"e&amp;gt;A d&amp;gt;A c&amp;gt;A|"E7"B4 (A&amp;gt;F)|"A"(E3 F) (A&amp;gt;B)|c4 (e&amp;gt;A)|"E7"c4 B2|"A"A4:||
